X:2245 
T:Bollan Bane
C:John Cain, Douglas
C:Traditional
O:Isle of Man 
Z:Clague Collection
N:See also KV 378, and same title in 6/8 time 280,379
B:Kiaull Vannin #245
L:1/8
M:2/4 
K:D
d>e|d>B A>B|d2 d>e|d>B A>B|e2 d>e|f>e d>B|d>A D>E|D2 D>F|A A>F|D D>F|D2||

